X: 19
T:Come O'er the Stream, Charlie
M:3/4
L:1/4
Q:1/4=144
K:F
C|F> A c|c  A d|c  A f|c A \
G|F> A c|c  A F|C> A G|F2:|
c|f  e f|d  e f|d  g f|e d \
c|f  e f|d  c B|A  G F|c2
c|B  d B|A  c f|c  A F|A G \
e|f> d B|c> A F|C> A G|F2|]

There is a cliche that tunes in the major sound happy.  To disprove
that, here is a Shetland lament for drowned fishermen - the title
refers to the unique black sweater that identified the dead body.

